X:144
T:Highlander's March,The. (p)1657.PLFD.145
M:6/4
L:1/4
Q:3/4=90
S:Playford, Dancing Master,Supplement to 3rd Ed.,1657
O:England
N:Very impressive Fife & Drum March?.
H:1657.
Z:Chris Partington.
K:F
D/E/|FFFGGG|A>GA/B/ccd/e/|ffff>ga/f/|e>de/f/dd:|
|:d/e/|ffff3|f>gfA>Bc|d>cdG>AB|c>dc/B/AcA|AG>FF2:|
